; This gcode is generated by my specialised python script for my PCB manufacturer project :))

; Machine Initialization Sequence...

G21 ; to set metric units
G90 ; to set absolute mode , G91 for incremental mode
G94 ; To set the active feed rate mode to units per minute mode

M5 ; disabling spindle PWM
C0 ; Choosing the empty tool slot in the multiplexer circuits

B1 ; Turn ON Machine

$H ; Homing :)
G10 P0 L20 X0.0Y0.0Z0.0 ; Force Reset current coordinates after homing


; The following gcode is the PCB holes drill gcode

; Getting and Activating Tool-2, The Tool.Spindle
G00X165.0Y91.0Z12.0 ; Go to Tool-2 Home Pos
G00X188 ; Enter Female Kinematic Mount Home Pos
A1 ; Latch on Kinematic Mount
G4 P5 ; Wait for Kinematic Mount to fully attach
G00X92 ; Exit Female Kinematic Mount Home Pos
#TODO X0.0Y0.0Z0.0 ;  ;Add tool offset coordinate
C2 ; Choosing tool 2 in the choose demultiplexer circuits

F600 ; setting default feedrate

S255 ; sets pwm speed when we enable it

G01 Z10F20 ; Moving Spindle to UP Postion

M3 ; Turn Motor ON
G4 P2 ; dwell for 2 seconds so motor reaches full RPM

G01 X16.5Y21.78F600
G01 Z13F1
G01 Z10F20
G01 X16.5Y19.24F600
G01 Z13F1
G01 Z10F20
G01 X16.5Y16.7F600
G01 Z13F1
G01 Z10F20
G01 X16.5Y14.16F600
G01 Z13F1
G01 Z10F20
G01 X16.5Y11.62F600
G01 Z13F1
G01 Z10F20
G01 X16.5Y9.08F600
G01 Z13F1
G01 Z10F20
G01 X16.5Y6.54F600
G01 Z13F1
G01 Z10F20
G01 X16.5Y4.0F600
G01 Z13F1
G01 Z10F20
G01 X4.0Y4.0F600
G01 Z13F1
G01 Z10F20
G01 X4.0Y6.54F600
G01 Z13F1
G01 Z10F20
G01 X4.0Y9.08F600
G01 Z13F1
G01 Z10F20
G01 X4.0Y11.62F600
G01 Z13F1
G01 Z10F20
G01 X4.0Y14.16F600
G01 Z13F1
G01 Z10F20
G01 X4.0Y16.7F600
G01 Z13F1
G01 Z10F20
G01 X4.0Y19.24F600
G01 Z13F1
G01 Z10F20
G01 X4.0Y21.78F600
G01 Z13F1
G01 Z10F20
G01 X7.6Y17.445F600
G01 Z13F1
G01 Z10F20
G01 X7.6Y16.175F600
G01 Z13F1
G01 Z10F20
G01 X7.6Y14.905F600
G01 Z13F1
G01 Z10F20
G01 X7.6Y13.635F600
G01 Z13F1
G01 Z10F20
G01 X7.6Y12.365F600
G01 Z13F1
G01 Z10F20
G01 X7.6Y11.095F600
G01 Z13F1
G01 Z10F20
G01 X7.6Y9.825F600
G01 Z13F1
G01 Z10F20
G01 X7.6Y8.555F600
G01 Z13F1
G01 Z10F20
G01 X12.9Y8.555F600
G01 Z13F1
G01 Z10F20
G01 X12.9Y9.825F600
G01 Z13F1
G01 Z10F20
G01 X12.9Y11.095F600
G01 Z13F1
G01 Z10F20
G01 X12.9Y12.365F600
G01 Z13F1
G01 Z10F20
G01 X12.9Y13.635F600
G01 Z13F1
G01 Z10F20
G01 X12.9Y14.905F600
G01 Z13F1
G01 Z10F20
G01 X12.9Y16.175F600
G01 Z13F1
G01 Z10F20
G01 X12.9Y17.445F600
G01 Z13F1
G01 Z10F20

M5 ; disabling spindle PWM

; Returning the Deactivating Tool-2
C0 ; PWM Tool select demultiplexer to select tool zero which is the empty tool slot in multiplexers
#TODO X-0.0Y-0.0Z-0.0 ;  ;Remove tool offset coordinate
G00X165.0Y91.0Z12.0 ; Go to Tool-2 Home Pos
G00X92 ; Enter Female Kinematic Mount Home Pos
A0 ; Latch OFF Kinematic Mount
G4 P5 ; Wait for Kinematic Mount to fully detach
G00X188 ; Exit Female Kinematic Mount Home Pos

; Machine deinitialization Sequence... 
G00X0.0Y0.0Z0.0
B0 ; Turn Machine OFF
