; This gcode is generated by my specialised python script for my PCB manufacturer project :))

; Machine Initialization Sequence...

G21 ; to set metric units
G90 ; to set absolute mode , G91 for incremental mode
G94 ; To set the active feed rate mode to units per minute mode

M5 ; disabling spindle PWM
C0 ; Choosing the empty tool slot in the multiplexer circuits

B1 ; Turn ON Machine

$H ; Homing :)
G10 P0 L20 X0.0Y0.0Z0.0 ; Force Reset current coordinates after homing


; The following gcode is the PCB trace laser marking gcode

M5 ; Being extra sure it won't light up before activation

; Getting and Activating Tool-1, The Tool.Laser
G00X165.0Y0.0Z10.5 ; Go to Tool-1 Home Pos
G00X188 ; Enter Female Kinematic Mount Home Pos
A1 ; Latch on Kinematic Mount
G4 P5 ; Wait for Kinematic Mount to fully attach
G00X92 ; Exit Female Kinematic Mount Home Pos
#TODO X0.0Y0.0Z0.0 ;  ;Add tool offset coordinate
C1 ; Choosing tool 1 in the choose demultiplexer circuits

F400 ; setting default feedrate

G00Z16 ; Moving to correct focal length Z position

S200 ; Setting Laser Power

; Number of passes: 1

; Pass number: 1
G01 X18.5098Y23.84952
M3
G01 X18.51951Y23.84808
G01 X18.52903Y23.84569
G01 X18.53827Y23.84239
G01 X18.54714Y23.83819
G01 X18.55556Y23.83315
G01 X18.56344Y23.8273
G01 X18.57071Y23.82071
G01 X18.5773Y23.81344
G01 X18.58315Y23.80556
G01 X18.58819Y23.79714
G01 X18.59239Y23.78827
G01 X18.59569Y23.77903
G01 X18.59808Y23.76951
G01 X18.59952Y23.7598
G01 X18.6Y23.75
G01 X18.6Y2.0
G01 X18.59952Y1.9902
G01 X18.59808Y1.98049
G01 X18.59569Y1.97097
G01 X18.59239Y1.96173
G01 X18.58819Y1.95286
G01 X18.58315Y1.94444
G01 X18.5773Y1.93656
G01 X18.57071Y1.92929
G01 X18.56344Y1.9227
G01 X18.55556Y1.91685
G01 X18.54714Y1.91181
G01 X18.53827Y1.90761
G01 X18.52903Y1.90431
G01 X18.51951Y1.90192
G01 X18.5098Y1.90048
G01 X18.5Y1.9
G01 X2.0Y1.9
G01 X1.9902Y1.90048
G01 X1.98049Y1.90192
G01 X1.97097Y1.90431
G01 X1.96173Y1.90761
G01 X1.95286Y1.91181
G01 X1.94444Y1.91685
G01 X1.93656Y1.9227
G01 X1.92929Y1.92929
G01 X1.9227Y1.93656
G01 X1.91685Y1.94444
G01 X1.91181Y1.95286
G01 X1.90761Y1.96173
G01 X1.90431Y1.97097
G01 X1.90192Y1.98049
G01 X1.90048Y1.9902
G01 X1.9Y2.0
G01 X1.9Y23.75
G01 X1.90048Y23.7598
G01 X1.90192Y23.76951
G01 X1.90431Y23.77903
G01 X1.90761Y23.78827
G01 X1.91181Y23.79714
G01 X1.91685Y23.80556
G01 X1.9227Y23.81344
G01 X1.92929Y23.82071
G01 X1.93656Y23.8273
G01 X1.94444Y23.83315
G01 X1.95286Y23.83819
G01 X1.96173Y23.84239
G01 X1.97097Y23.84569
G01 X1.98049Y23.84808
G01 X1.9902Y23.84952
G01 X2.0Y23.85
G01 X18.5Y23.85
G01 X18.5098Y23.84952
G01 X18.5098Y23.84952
M5
G01 X16.66583Y22.61367
M3
G01 X16.74674Y22.5934
G01 X16.82528Y22.5653
G01 X16.90069Y22.52963
G01 X16.97223Y22.48675
G01 X17.03923Y22.43706
G01 X17.10104Y22.38104
G01 X17.15706Y22.31923
G01 X17.20675Y22.25223
G01 X17.24963Y22.18069
G01 X17.2853Y22.10528
G01 X17.3134Y22.02674
G01 X17.33367Y21.94583
G01 X17.34591Y21.86331
G01 X17.35Y21.78
G01 X17.34591Y21.69669
G01 X17.33367Y21.61417
G01 X17.3134Y21.53326
G01 X17.2853Y21.45472
G01 X17.24963Y21.37931
G01 X17.20675Y21.30777
G01 X17.15706Y21.24077
G01 X17.10104Y21.17896
G01 X17.03923Y21.12294
G01 X16.97223Y21.07325
G01 X16.90069Y21.03037
G01 X16.82528Y20.9947
G01 X16.74674Y20.9666
G01 X16.66583Y20.94633
G01 X16.58331Y20.93409
G01 X16.5Y20.93
G01 X16.41669Y20.93409
G01 X16.33417Y20.94633
G01 X16.25326Y20.9666
G01 X16.17472Y20.9947
G01 X16.12644Y21.01753
G01 X13.175Y18.06609
G01 X13.175Y17.72
G01 X13.5625Y17.72
G01 X13.58638Y17.71791
G01 X13.60953Y17.71171
G01 X13.63125Y17.70158
G01 X13.65088Y17.68783
G01 X13.66783Y17.67088
G01 X13.68158Y17.65125
G01 X13.69171Y17.62953
G01 X13.69791Y17.60638
G01 X13.7Y17.5825
G01 X13.7Y17.3075
G01 X13.69791Y17.28362
G01 X13.69171Y17.26047
G01 X13.68158Y17.23875
G01 X13.66783Y17.21912
G01 X13.65088Y17.20217
G01 X13.63125Y17.18842
G01 X13.60953Y17.17829
G01 X13.58638Y17.17209
G01 X13.5625Y17.17
G01 X12.2375Y17.17
G01 X12.21362Y17.17209
G01 X12.19047Y17.17829
G01 X12.16875Y17.18842
G01 X12.14912Y17.20217
G01 X12.13217Y17.21912
G01 X12.11842Y17.23875
G01 X12.10829Y17.26047
G01 X12.10209Y17.28362
G01 X12.1Y17.3075
G01 X12.1Y17.5825
G01 X12.10209Y17.60638
G01 X12.10829Y17.62953
G01 X12.11842Y17.65125
G01 X12.13217Y17.67088
G01 X12.14912Y17.68783
G01 X12.16875Y17.70158
G01 X12.19047Y17.71171
G01 X12.21362Y17.71791
G01 X12.2375Y17.72
G01 X12.625Y17.72
G01 X12.625Y18.18
G01 X12.62632Y18.20695
G01 X12.63028Y18.23365
G01 X12.63684Y18.25983
G01 X12.64593Y18.28524
G01 X12.65747Y18.30963
G01 X12.67135Y18.33278
G01 X12.68742Y18.35446
G01 X12.70555Y18.37445
G01 X15.73753Y21.40644
G01 X15.7147Y21.45472
G01 X15.6866Y21.53326
G01 X15.66633Y21.61417
G01 X15.65409Y21.69669
G01 X15.65Y21.78
G01 X15.65409Y21.86331
G01 X15.66633Y21.94583
G01 X15.6866Y22.02674
G01 X15.7147Y22.10528
G01 X15.75037Y22.18069
G01 X15.79325Y22.25223
G01 X15.84294Y22.31923
G01 X15.89896Y22.38104
G01 X15.96077Y22.43706
G01 X16.02777Y22.48675
G01 X16.09931Y22.52963
G01 X16.17472Y22.5653
G01 X16.25326Y22.5934
G01 X16.33417Y22.61367
G01 X16.41669Y22.62591
G01 X16.5Y22.63
G01 X16.58331Y22.62591
G01 X16.66583Y22.61367
G01 X16.66583Y22.61367
M5
G01 X16.58331Y20.08591
M3
G01 X16.66583Y20.07367
G01 X16.74674Y20.0534
G01 X16.82528Y20.0253
G01 X16.90069Y19.98963
G01 X16.97223Y19.94675
G01 X17.03923Y19.89706
G01 X17.10104Y19.84104
G01 X17.15706Y19.77923
G01 X17.20675Y19.71223
G01 X17.24963Y19.64069
G01 X17.2853Y19.56528
G01 X17.3134Y19.48674
G01 X17.33367Y19.40583
G01 X17.34591Y19.32331
G01 X17.35Y19.24
G01 X17.34591Y19.15669
G01 X17.33367Y19.07417
G01 X17.3134Y18.99326
G01 X17.2853Y18.91472
G01 X17.24963Y18.83931
G01 X17.20675Y18.76777
G01 X17.15706Y18.70077
G01 X17.10104Y18.63896
G01 X17.03923Y18.58294
G01 X16.97223Y18.53325
G01 X16.90069Y18.49037
G01 X16.82528Y18.4547
G01 X16.74674Y18.4266
G01 X16.66583Y18.40633
G01 X16.58331Y18.39409
G01 X16.5Y18.39
G01 X16.41669Y18.39409
G01 X16.33417Y18.40633
G01 X16.25326Y18.4266
G01 X16.17472Y18.4547
G01 X16.12644Y18.47753
G01 X13.7Y16.05109
G01 X13.7Y16.0375
G01 X13.69791Y16.01362
G01 X13.69171Y15.99047
G01 X13.68158Y15.96875
G01 X13.66783Y15.94912
G01 X13.65088Y15.93217
G01 X13.63125Y15.91842
G01 X13.60953Y15.90829
G01 X13.58638Y15.90209
G01 X13.5625Y15.9
G01 X12.2375Y15.9
G01 X12.21362Y15.90209
G01 X12.19047Y15.90829
G01 X12.16875Y15.91842
G01 X12.14912Y15.93217
G01 X12.13217Y15.94912
G01 X12.11842Y15.96875
G01 X12.10829Y15.99047
G01 X12.10209Y16.01362
G01 X12.1Y16.0375
G01 X12.1Y16.3125
G01 X12.10209Y16.33638
G01 X12.10829Y16.35953
G01 X12.11842Y16.38125
G01 X12.13217Y16.40088
G01 X12.14912Y16.41783
G01 X12.16875Y16.43158
G01 X12.19047Y16.44171
G01 X12.21362Y16.44791
G01 X12.2375Y16.45
G01 X13.32109Y16.45
G01 X15.73753Y18.86644
G01 X15.7147Y18.91472
G01 X15.6866Y18.99326
G01 X15.66633Y19.07417
G01 X15.65409Y19.15669
G01 X15.65Y19.24
G01 X15.65409Y19.32331
G01 X15.66633Y19.40583
G01 X15.6866Y19.48674
G01 X15.7147Y19.56528
G01 X15.75037Y19.64069
G01 X15.79325Y19.71223
G01 X15.84294Y19.77923
G01 X15.89896Y19.84104
G01 X15.96077Y19.89706
G01 X16.02777Y19.94675
G01 X16.09931Y19.98963
G01 X16.17472Y20.0253
G01 X16.25326Y20.0534
G01 X16.33417Y20.07367
G01 X16.41669Y20.08591
G01 X16.5Y20.09
G01 X16.58331Y20.08591
G01 X16.58331Y20.08591
M5
G01 X16.5Y17.55
M3
G01 X16.58331Y17.54591
G01 X16.66583Y17.53367
G01 X16.74674Y17.5134
G01 X16.82528Y17.4853
G01 X16.90069Y17.44963
G01 X16.97223Y17.40675
G01 X17.03923Y17.35706
G01 X17.10104Y17.30104
G01 X17.15706Y17.23923
G01 X17.20675Y17.17223
G01 X17.24963Y17.10069
G01 X17.2853Y17.02528
G01 X17.3134Y16.94674
G01 X17.33367Y16.86583
G01 X17.34591Y16.78331
G01 X17.35Y16.7
G01 X17.34591Y16.61669
G01 X17.33367Y16.53417
G01 X17.3134Y16.45326
G01 X17.2853Y16.37472
G01 X17.24963Y16.29931
G01 X17.20675Y16.22777
G01 X17.15706Y16.16077
G01 X17.10104Y16.09896
G01 X17.03923Y16.04294
G01 X16.97223Y15.99325
G01 X16.90069Y15.95037
G01 X16.82528Y15.9147
G01 X16.74674Y15.8866
G01 X16.66583Y15.86633
G01 X16.58331Y15.85409
G01 X16.5Y15.85
G01 X16.41669Y15.85409
G01 X16.33417Y15.86633
G01 X16.25326Y15.8866
G01 X16.17472Y15.9147
G01 X16.12644Y15.93753
G01 X14.89945Y14.71055
G01 X14.89945Y14.71055
G01 X14.87946Y14.69242
G01 X14.87386Y14.68827
G01 X14.85778Y14.67635
G01 X14.83463Y14.66247
G01 X14.81024Y14.65093
G01 X14.78483Y14.64184
G01 X14.75865Y14.63528
G01 X14.73195Y14.63132
G01 X14.705Y14.63
G01 X14.705Y14.63
G01 X13.5625Y14.63
G01 X13.5625Y14.63
G01 X12.2375Y14.63
G01 X12.21362Y14.63209
G01 X12.19047Y14.63829
G01 X12.16875Y14.64842
G01 X12.14912Y14.66217
G01 X12.13217Y14.67912
G01 X12.11842Y14.69875
G01 X12.10829Y14.72047
G01 X12.10209Y14.74362
G01 X12.1Y14.7675
G01 X12.1Y15.0425
G01 X12.10209Y15.06638
G01 X12.10829Y15.08953
G01 X12.11842Y15.11125
G01 X12.13217Y15.13088
G01 X12.14912Y15.14783
G01 X12.16875Y15.16158
G01 X12.19047Y15.17171
G01 X12.21362Y15.17791
G01 X12.2375Y15.18
G01 X13.5625Y15.18
G01 X13.5625Y15.18
G01 X14.59109Y15.18
G01 X15.73753Y16.32644
G01 X15.7147Y16.37472
G01 X15.6866Y16.45326
G01 X15.66633Y16.53417
G01 X15.65409Y16.61669
G01 X15.65Y16.7
G01 X15.65409Y16.78331
G01 X15.66633Y16.86583
G01 X15.6866Y16.94674
G01 X15.7147Y17.02528
G01 X15.75037Y17.10069
G01 X15.79325Y17.17223
G01 X15.84294Y17.23923
G01 X15.89896Y17.30104
G01 X15.96077Y17.35706
G01 X16.02777Y17.40675
G01 X16.09931Y17.44963
G01 X16.17472Y17.4853
G01 X16.25326Y17.5134
G01 X16.33417Y17.53367
G01 X16.41669Y17.54591
G01 X16.5Y17.55
G01 X16.5Y17.55
M5
G01 X16.41669Y15.00591
M3
G01 X16.5Y15.01
G01 X16.58331Y15.00591
G01 X16.66583Y14.99367
G01 X16.74674Y14.9734
G01 X16.82528Y14.9453
G01 X16.90069Y14.90963
G01 X16.97223Y14.86675
G01 X17.03923Y14.81706
G01 X17.10104Y14.76104
G01 X17.15706Y14.69923
G01 X17.20675Y14.63223
G01 X17.24963Y14.56069
G01 X17.2853Y14.48528
G01 X17.3134Y14.40674
G01 X17.33367Y14.32583
G01 X17.34591Y14.24331
G01 X17.35Y14.16
G01 X17.34591Y14.07669
G01 X17.33367Y13.99417
G01 X17.3134Y13.91326
G01 X17.2853Y13.83472
G01 X17.24963Y13.75931
G01 X17.20675Y13.68777
G01 X17.15706Y13.62077
G01 X17.10104Y13.55896
G01 X17.03923Y13.50294
G01 X16.97223Y13.45325
G01 X16.90069Y13.41037
G01 X16.82528Y13.3747
G01 X16.74674Y13.3466
G01 X16.66583Y13.32633
G01 X16.58331Y13.31409
G01 X16.5Y13.31
G01 X16.41669Y13.31409
G01 X16.33417Y13.32633
G01 X16.25326Y13.3466
G01 X16.17472Y13.3747
G01 X16.11898Y13.40107
G01 X16.10786Y13.3944
G01 X16.10463Y13.39247
G01 X16.10463Y13.39247
G01 X16.08024Y13.38093
G01 X16.05483Y13.37184
G01 X16.02865Y13.36528
G01 X16.00195Y13.36132
G01 X15.97765Y13.36013
G01 X15.975Y13.36
G01 X15.975Y13.36
G01 X13.5625Y13.36
G01 X13.5625Y13.36
G01 X12.2375Y13.36
G01 X12.21362Y13.36209
G01 X12.19047Y13.36829
G01 X12.16875Y13.37842
G01 X12.14912Y13.39217
G01 X12.13217Y13.40912
G01 X12.11842Y13.42875
G01 X12.10829Y13.45047
G01 X12.10209Y13.47362
G01 X12.1Y13.4975
G01 X12.1Y13.7725
G01 X12.10209Y13.79638
G01 X12.10829Y13.81953
G01 X12.11842Y13.84125
G01 X12.13217Y13.86088
G01 X12.14912Y13.87783
G01 X12.16875Y13.89158
G01 X12.19047Y13.90171
G01 X12.21362Y13.90791
G01 X12.2375Y13.91
G01 X13.5625Y13.91
G01 X13.5625Y13.91
G01 X15.68777Y13.91
G01 X15.6866Y13.91326
G01 X15.66633Y13.99417
G01 X15.65409Y14.07669
G01 X15.65Y14.16
G01 X15.65409Y14.24331
G01 X15.66633Y14.32583
G01 X15.6866Y14.40674
G01 X15.7147Y14.48528
G01 X15.75037Y14.56069
G01 X15.79325Y14.63223
G01 X15.84294Y14.69923
G01 X15.89896Y14.76104
G01 X15.96077Y14.81706
G01 X16.02777Y14.86675
G01 X16.09931Y14.90963
G01 X16.17472Y14.9453
G01 X16.25326Y14.9734
G01 X16.33417Y14.99367
G01 X16.41669Y15.00591
G01 X16.41669Y15.00591
M5
G01 X16.33417Y12.45367
M3
G01 X16.41669Y12.46591
G01 X16.5Y12.47
G01 X16.58331Y12.46591
G01 X16.66583Y12.45367
G01 X16.74674Y12.4334
G01 X16.82528Y12.4053
G01 X16.90069Y12.36963
G01 X16.97223Y12.32675
G01 X17.03923Y12.27706
G01 X17.10104Y12.22104
G01 X17.15706Y12.15923
G01 X17.20675Y12.09223
G01 X17.24963Y12.02069
G01 X17.2853Y11.94528
G01 X17.3134Y11.86674
G01 X17.33367Y11.78583
G01 X17.34591Y11.70331
G01 X17.35Y11.62
G01 X17.34591Y11.53669
G01 X17.33367Y11.45417
G01 X17.3134Y11.37326
G01 X17.2853Y11.29472
G01 X17.24963Y11.21931
G01 X17.20675Y11.14777
G01 X17.15706Y11.08077
G01 X17.10104Y11.01896
G01 X17.03923Y10.96294
G01 X16.97223Y10.91325
G01 X16.90069Y10.87037
G01 X16.82528Y10.8347
G01 X16.74674Y10.8066
G01 X16.66583Y10.78633
G01 X16.58331Y10.77409
G01 X16.5Y10.77
G01 X16.41669Y10.77409
G01 X16.33417Y10.78633
G01 X16.25326Y10.8066
G01 X16.17472Y10.8347
G01 X16.09931Y10.87037
G01 X16.02777Y10.91325
G01 X15.96077Y10.96294
G01 X15.89896Y11.01896
G01 X15.84294Y11.08077
G01 X15.79325Y11.14777
G01 X15.75037Y11.21931
G01 X15.7147Y11.29472
G01 X15.6866Y11.37326
G01 X15.66633Y11.45417
G01 X15.65409Y11.53669
G01 X15.65Y11.62
G01 X15.65409Y11.70331
G01 X15.66633Y11.78583
G01 X15.6866Y11.86674
G01 X15.7147Y11.94528
G01 X15.73753Y11.99356
G01 X15.64109Y12.09
G01 X13.5625Y12.09
G01 X13.5625Y12.09
G01 X12.2375Y12.09
G01 X12.21362Y12.09209
G01 X12.19047Y12.09829
G01 X12.16875Y12.10842
G01 X12.14912Y12.12217
G01 X12.13217Y12.13912
G01 X12.11842Y12.15875
G01 X12.10829Y12.18047
G01 X12.10209Y12.20362
G01 X12.1Y12.2275
G01 X12.1Y12.5025
G01 X12.10209Y12.52638
G01 X12.10829Y12.54953
G01 X12.11842Y12.57125
G01 X12.13217Y12.59088
G01 X12.14912Y12.60783
G01 X12.16875Y12.62158
G01 X12.19047Y12.63171
G01 X12.21362Y12.63791
G01 X12.2375Y12.64
G01 X13.5625Y12.64
G01 X13.5625Y12.64
G01 X15.755Y12.64
G01 X15.755Y12.64
G01 X15.75765Y12.63987
G01 X15.78195Y12.63868
G01 X15.80865Y12.63472
G01 X15.82827Y12.6298
G01 X15.83483Y12.62816
G01 X15.84898Y12.62309
G01 X15.86024Y12.61907
G01 X15.88463Y12.60753
G01 X15.90778Y12.59365
G01 X15.91338Y12.5895
G01 X15.92946Y12.57758
G01 X15.94758Y12.56115
G01 X15.94945Y12.55945
G01 X16.12644Y12.38247
G01 X16.17472Y12.4053
G01 X16.25326Y12.4334
G01 X16.33417Y12.45367
G01 X16.33417Y12.45367
M5
G01 X16.66583Y9.91367
M3
G01 X16.74674Y9.8934
G01 X16.82528Y9.8653
G01 X16.90069Y9.82963
G01 X16.97223Y9.78675
G01 X17.03923Y9.73706
G01 X17.10104Y9.68104
G01 X17.15706Y9.61923
G01 X17.20675Y9.55223
G01 X17.24963Y9.48069
G01 X17.2853Y9.40528
G01 X17.3134Y9.32674
G01 X17.33367Y9.24583
G01 X17.34591Y9.16331
G01 X17.35Y9.08
G01 X17.34591Y8.99669
G01 X17.33367Y8.91417
G01 X17.3134Y8.83326
G01 X17.2853Y8.75472
G01 X17.24963Y8.67931
G01 X17.20675Y8.60777
G01 X17.15706Y8.54077
G01 X17.10104Y8.47896
G01 X17.03923Y8.42294
G01 X16.97223Y8.37325
G01 X16.90069Y8.33037
G01 X16.82528Y8.2947
G01 X16.74674Y8.2666
G01 X16.66583Y8.24633
G01 X16.58331Y8.23409
G01 X16.5Y8.23
G01 X16.41669Y8.23409
G01 X16.33417Y8.24633
G01 X16.25326Y8.2666
G01 X16.17472Y8.2947
G01 X16.09931Y8.33037
G01 X16.02777Y8.37325
G01 X15.96077Y8.42294
G01 X15.89896Y8.47896
G01 X15.84294Y8.54077
G01 X15.79325Y8.60777
G01 X15.75037Y8.67931
G01 X15.7147Y8.75472
G01 X15.6866Y8.83326
G01 X15.66633Y8.91417
G01 X15.65409Y8.99669
G01 X15.65Y9.08
G01 X15.65409Y9.16331
G01 X15.66633Y9.24583
G01 X15.6866Y9.32674
G01 X15.7147Y9.40528
G01 X15.73753Y9.45356
G01 X14.37109Y10.82
G01 X13.5625Y10.82
G01 X13.5625Y10.82
G01 X12.2375Y10.82
G01 X12.21362Y10.82209
G01 X12.19047Y10.82829
G01 X12.16875Y10.83842
G01 X12.14912Y10.85217
G01 X12.13217Y10.86912
G01 X12.11842Y10.88875
G01 X12.10829Y10.91047
G01 X12.10209Y10.93362
G01 X12.1Y10.9575
G01 X12.1Y11.2325
G01 X12.10209Y11.25638
G01 X12.10829Y11.27953
G01 X12.11842Y11.30125
G01 X12.13217Y11.32088
G01 X12.14912Y11.33783
G01 X12.16875Y11.35158
G01 X12.19047Y11.36171
G01 X12.21362Y11.36791
G01 X12.2375Y11.37
G01 X13.5625Y11.37
G01 X13.5625Y11.37
G01 X14.485Y11.37
G01 X14.485Y11.37
G01 X14.51195Y11.36868
G01 X14.53865Y11.36472
G01 X14.56483Y11.35816
G01 X14.59024Y11.34907
G01 X14.61463Y11.33753
G01 X14.63778Y11.32365
G01 X14.65386Y11.31173
G01 X14.65946Y11.30758
G01 X14.67945Y11.28945
G01 X14.67945Y11.28945
G01 X16.12644Y9.84247
G01 X16.17472Y9.8653
G01 X16.25326Y9.8934
G01 X16.33417Y9.91367
G01 X16.41669Y9.92591
G01 X16.5Y9.93
G01 X16.58331Y9.92591
G01 X16.66583Y9.91367
G01 X16.66583Y9.91367
M5
G01 X13.5625Y9.55
M3
G01 X12.2375Y9.55
G01 X12.21362Y9.55209
G01 X12.19047Y9.55829
G01 X12.16875Y9.56842
G01 X12.14912Y9.58217
G01 X12.13217Y9.59912
G01 X12.11842Y9.61875
G01 X12.10829Y9.64047
G01 X12.10209Y9.66362
G01 X12.1Y9.6875
G01 X12.1Y9.9625
G01 X12.10209Y9.98638
G01 X12.10829Y10.00953
G01 X12.11842Y10.03125
G01 X12.13217Y10.05088
G01 X12.14912Y10.06783
G01 X12.16875Y10.08158
G01 X12.19047Y10.09171
G01 X12.21362Y10.09791
G01 X12.2375Y10.1
G01 X13.5625Y10.1
G01 X13.5625Y10.1
G01 X13.7Y10.1
G01 X13.72695Y10.09868
G01 X13.75365Y10.09472
G01 X13.77983Y10.08816
G01 X13.80524Y10.07907
G01 X13.82963Y10.06753
G01 X13.85278Y10.05365
G01 X13.87446Y10.03758
G01 X13.89445Y10.01945
G01 X16.52514Y7.38876
G01 X16.58331Y7.38591
G01 X16.66583Y7.37367
G01 X16.74674Y7.3534
G01 X16.82528Y7.3253
G01 X16.90069Y7.28963
G01 X16.97223Y7.24675
G01 X17.03923Y7.19706
G01 X17.10104Y7.14104
G01 X17.15706Y7.07923
G01 X17.20675Y7.01223
G01 X17.24963Y6.94069
G01 X17.2853Y6.86528
G01 X17.3134Y6.78674
G01 X17.33367Y6.70583
G01 X17.34591Y6.62331
G01 X17.35Y6.54
G01 X17.34591Y6.45669
G01 X17.33367Y6.37417
G01 X17.3134Y6.29326
G01 X17.2853Y6.21472
G01 X17.24963Y6.13931
G01 X17.20675Y6.06777
G01 X17.15706Y6.00077
G01 X17.10104Y5.93896
G01 X17.03923Y5.88294
G01 X16.97223Y5.83325
G01 X16.90069Y5.79037
G01 X16.82528Y5.7547
G01 X16.74674Y5.7266
G01 X16.66583Y5.70633
G01 X16.58331Y5.69409
G01 X16.5Y5.69
G01 X16.41669Y5.69409
G01 X16.33417Y5.70633
G01 X16.25326Y5.7266
G01 X16.17472Y5.7547
G01 X16.09931Y5.79037
G01 X16.02777Y5.83325
G01 X15.96077Y5.88294
G01 X15.89896Y5.93896
G01 X15.84294Y6.00077
G01 X15.79325Y6.06777
G01 X15.75037Y6.13931
G01 X15.7147Y6.21472
G01 X15.6866Y6.29326
G01 X15.66633Y6.37417
G01 X15.65409Y6.45669
G01 X15.65Y6.54
G01 X15.65409Y6.62331
G01 X15.66633Y6.70583
G01 X15.6866Y6.78674
G01 X15.7147Y6.86528
G01 X15.75037Y6.94069
G01 X15.79325Y7.01223
G01 X15.84294Y7.07923
G01 X15.89896Y7.14104
G01 X15.94936Y7.18673
G01 X13.58609Y9.55
G01 X13.5625Y9.55
G01 X13.5625Y9.55
G01 X13.5625Y9.55
M5
G01 X12.19047Y8.28829
M3
G01 X12.16875Y8.29842
G01 X12.14912Y8.31217
G01 X12.13217Y8.32912
G01 X12.11842Y8.34875
G01 X12.10829Y8.37047
G01 X12.10209Y8.39362
G01 X12.1Y8.4175
G01 X12.1Y8.6925
G01 X12.10209Y8.71638
G01 X12.10829Y8.73953
G01 X12.11842Y8.76125
G01 X12.13217Y8.78088
G01 X12.14912Y8.79783
G01 X12.16875Y8.81158
G01 X12.19047Y8.82171
G01 X12.21362Y8.82791
G01 X12.2375Y8.83
G01 X13.5625Y8.83
G01 X13.58638Y8.82791
G01 X13.60953Y8.82171
G01 X13.63125Y8.81158
G01 X13.65088Y8.79783
G01 X13.66783Y8.78088
G01 X13.68158Y8.76125
G01 X13.69171Y8.73953
G01 X13.69791Y8.71638
G01 X13.7Y8.6925
G01 X13.7Y8.4175
G01 X13.69791Y8.39362
G01 X13.69171Y8.37047
G01 X13.68158Y8.34875
G01 X13.66783Y8.32912
G01 X13.65088Y8.31217
G01 X13.63125Y8.29842
G01 X13.60953Y8.28829
G01 X13.58638Y8.28209
G01 X13.5625Y8.28
G01 X13.175Y8.28
G01 X13.175Y7.71391
G01 X16.03891Y4.85
G01 X17.35Y4.85
G01 X17.35Y3.15
G01 X15.65Y3.15
G01 X15.65Y4.46109
G01 X12.70555Y7.40555
G01 X12.68742Y7.42554
G01 X12.67135Y7.44722
G01 X12.65747Y7.47037
G01 X12.64593Y7.49476
G01 X12.63684Y7.52017
G01 X12.63028Y7.54635
G01 X12.62632Y7.57305
G01 X12.625Y7.6
G01 X12.625Y8.28
G01 X12.2375Y8.28
G01 X12.21362Y8.28209
G01 X12.19047Y8.28829
G01 X12.19047Y8.28829
M5
G01 X8.39791Y8.71638
M3
G01 X8.4Y8.6925
G01 X8.4Y8.4175
G01 X8.39791Y8.39362
G01 X8.39171Y8.37047
G01 X8.38158Y8.34875
G01 X8.36783Y8.32912
G01 X8.35088Y8.31217
G01 X8.33125Y8.29842
G01 X8.30953Y8.28829
G01 X8.28638Y8.28209
G01 X8.2625Y8.28
G01 X7.875Y8.28
G01 X7.875Y7.6
G01 X7.87368Y7.57305
G01 X7.86972Y7.54635
G01 X7.86316Y7.52017
G01 X7.85407Y7.49476
G01 X7.84253Y7.47037
G01 X7.82865Y7.44722
G01 X7.81258Y7.42554
G01 X7.79445Y7.40555
G01 X4.85Y4.46109
G01 X4.85Y3.15
G01 X3.15Y3.15
G01 X3.15Y4.85
G01 X4.46109Y4.85
G01 X7.325Y7.71391
G01 X7.325Y8.28
G01 X6.9375Y8.28
G01 X6.91362Y8.28209
G01 X6.89047Y8.28829
G01 X6.86875Y8.29842
G01 X6.84912Y8.31217
G01 X6.83217Y8.32912
G01 X6.81842Y8.34875
G01 X6.80829Y8.37047
G01 X6.80209Y8.39362
G01 X6.8Y8.4175
G01 X6.8Y8.6925
G01 X6.80209Y8.71638
G01 X6.80829Y8.73953
G01 X6.81842Y8.76125
G01 X6.83217Y8.78088
G01 X6.84912Y8.79783
G01 X6.86875Y8.81158
G01 X6.89047Y8.82171
G01 X6.91362Y8.82791
G01 X6.9375Y8.83
G01 X8.2625Y8.83
G01 X8.28638Y8.82791
G01 X8.30953Y8.82171
G01 X8.33125Y8.81158
G01 X8.35088Y8.79783
G01 X8.36783Y8.78088
G01 X8.38158Y8.76125
G01 X8.39171Y8.73953
G01 X8.39791Y8.71638
G01 X8.39791Y8.71638
M5
G01 X3.46077Y7.19706
M3
G01 X3.52777Y7.24675
G01 X3.59931Y7.28963
G01 X3.67472Y7.3253
G01 X3.75326Y7.3534
G01 X3.83417Y7.37367
G01 X3.91669Y7.38591
G01 X3.97486Y7.38876
G01 X6.60555Y10.01945
G01 X6.62554Y10.03758
G01 X6.64722Y10.05365
G01 X6.67037Y10.06753
G01 X6.69476Y10.07907
G01 X6.72017Y10.08816
G01 X6.74635Y10.09472
G01 X6.77305Y10.09868
G01 X6.8Y10.1
G01 X6.9375Y10.1
G01 X8.2625Y10.1
G01 X8.28638Y10.09791
G01 X8.30953Y10.09171
G01 X8.33125Y10.08158
G01 X8.35088Y10.06783
G01 X8.36783Y10.05088
G01 X8.38158Y10.03125
G01 X8.39171Y10.00953
G01 X8.39791Y9.98638
G01 X8.4Y9.9625
G01 X8.4Y9.6875
G01 X8.39791Y9.66362
G01 X8.39171Y9.64047
G01 X8.38158Y9.61875
G01 X8.36783Y9.59912
G01 X8.35088Y9.58217
G01 X8.33125Y9.56842
G01 X8.30953Y9.55829
G01 X8.28638Y9.55209
G01 X8.2625Y9.55
G01 X6.9375Y9.55
G01 X6.91391Y9.55
G01 X4.55064Y7.18673
G01 X4.60104Y7.14104
G01 X4.65706Y7.07923
G01 X4.70675Y7.01223
G01 X4.74963Y6.94069
G01 X4.7853Y6.86528
G01 X4.8134Y6.78674
G01 X4.83367Y6.70583
G01 X4.84591Y6.62331
G01 X4.85Y6.54
G01 X4.84591Y6.45669
G01 X4.83367Y6.37417
G01 X4.8134Y6.29326
G01 X4.7853Y6.21472
G01 X4.74963Y6.13931
G01 X4.70675Y6.06777
G01 X4.65706Y6.00077
G01 X4.60104Y5.93896
G01 X4.53923Y5.88294
G01 X4.47223Y5.83325
G01 X4.40069Y5.79037
G01 X4.32528Y5.7547
G01 X4.24674Y5.7266
G01 X4.16583Y5.70633
G01 X4.08331Y5.69409
G01 X4.0Y5.69
G01 X3.91669Y5.69409
G01 X3.83417Y5.70633
G01 X3.75326Y5.7266
G01 X3.67472Y5.7547
G01 X3.59931Y5.79037
G01 X3.52777Y5.83325
G01 X3.46077Y5.88294
G01 X3.39896Y5.93896
G01 X3.34294Y6.00077
G01 X3.29325Y6.06777
G01 X3.25037Y6.13931
G01 X3.2147Y6.21472
G01 X3.1866Y6.29326
G01 X3.16633Y6.37417
G01 X3.15409Y6.45669
G01 X3.15Y6.54
G01 X3.15409Y6.62331
G01 X3.16633Y6.70583
G01 X3.1866Y6.78674
G01 X3.2147Y6.86528
G01 X3.25037Y6.94069
G01 X3.29325Y7.01223
G01 X3.34294Y7.07923
G01 X3.39896Y7.14104
G01 X3.46077Y7.19706
G01 X3.46077Y7.19706
M5
G01 X3.39896Y9.68104
M3
G01 X3.46077Y9.73706
G01 X3.52777Y9.78675
G01 X3.59931Y9.82963
G01 X3.67472Y9.8653
G01 X3.75326Y9.8934
G01 X3.83417Y9.91367
G01 X3.91669Y9.92591
G01 X4.0Y9.93
G01 X4.08331Y9.92591
G01 X4.16583Y9.91367
G01 X4.24674Y9.8934
G01 X4.32528Y9.8653
G01 X4.37356Y9.84247
G01 X5.82055Y11.28945
G01 X5.84054Y11.30758
G01 X5.85635Y11.3193
G01 X5.86222Y11.32365
G01 X5.88537Y11.33753
G01 X5.90976Y11.34907
G01 X5.93517Y11.35816
G01 X5.96135Y11.36472
G01 X5.98805Y11.36868
G01 X6.015Y11.37
G01 X6.9375Y11.37
G01 X8.2625Y11.37
G01 X8.28638Y11.36791
G01 X8.30953Y11.36171
G01 X8.33125Y11.35158
G01 X8.35088Y11.33783
G01 X8.36783Y11.32088
G01 X8.38158Y11.30125
G01 X8.39171Y11.27953
G01 X8.39791Y11.25638
G01 X8.4Y11.2325
G01 X8.4Y10.9575
G01 X8.39791Y10.93362
G01 X8.39171Y10.91047
G01 X8.38158Y10.88875
G01 X8.36783Y10.86912
G01 X8.35088Y10.85217
G01 X8.33125Y10.83842
G01 X8.30953Y10.82829
G01 X8.28638Y10.82209
G01 X8.2625Y10.82
G01 X6.9375Y10.82
G01 X6.12891Y10.82
G01 X4.76247Y9.45356
G01 X4.7853Y9.40528
G01 X4.8134Y9.32674
G01 X4.83367Y9.24583
G01 X4.84591Y9.16331
G01 X4.85Y9.08
G01 X4.84591Y8.99669
G01 X4.83367Y8.91417
G01 X4.8134Y8.83326
G01 X4.7853Y8.75472
G01 X4.74963Y8.67931
G01 X4.70675Y8.60777
G01 X4.65706Y8.54077
G01 X4.60104Y8.47896
G01 X4.53923Y8.42294
G01 X4.47223Y8.37325
G01 X4.40069Y8.33037
G01 X4.32528Y8.2947
G01 X4.24674Y8.2666
G01 X4.16583Y8.24633
G01 X4.08331Y8.23409
G01 X4.0Y8.23
G01 X3.91669Y8.23409
G01 X3.83417Y8.24633
G01 X3.75326Y8.2666
G01 X3.67472Y8.2947
G01 X3.59931Y8.33037
G01 X3.52777Y8.37325
G01 X3.46077Y8.42294
G01 X3.39896Y8.47896
G01 X3.34294Y8.54077
G01 X3.29325Y8.60777
G01 X3.25037Y8.67931
G01 X3.2147Y8.75472
G01 X3.1866Y8.83326
G01 X3.16633Y8.91417
G01 X3.15409Y8.99669
G01 X3.15Y9.08
G01 X3.15409Y9.16331
G01 X3.16633Y9.24583
G01 X3.1866Y9.32674
G01 X3.2147Y9.40528
G01 X3.25037Y9.48069
G01 X3.29325Y9.55223
G01 X3.34294Y9.61923
G01 X3.39896Y9.68104
G01 X3.39896Y9.68104
M5
G01 X3.34294Y12.15923
M3
G01 X3.39896Y12.22104
G01 X3.46077Y12.27706
G01 X3.52777Y12.32675
G01 X3.59931Y12.36963
G01 X3.67472Y12.4053
G01 X3.75326Y12.4334
G01 X3.83417Y12.45367
G01 X3.91669Y12.46591
G01 X4.0Y12.47
G01 X4.08331Y12.46591
G01 X4.16583Y12.45367
G01 X4.24674Y12.4334
G01 X4.32528Y12.4053
G01 X4.37356Y12.38247
G01 X4.55055Y12.55945
G01 X4.55183Y12.56062
G01 X4.57054Y12.57758
G01 X4.59222Y12.59365
G01 X4.59222Y12.59365
G01 X4.59222Y12.59365
G01 X4.61537Y12.60753
G01 X4.63976Y12.61907
G01 X4.65154Y12.62328
G01 X4.66517Y12.62816
G01 X4.67501Y12.63062
G01 X4.69135Y12.63472
G01 X4.71805Y12.63868
G01 X4.74301Y12.6399
G01 X4.745Y12.64
G01 X4.745Y12.64
G01 X6.9375Y12.64
G01 X6.9375Y12.64
G01 X8.2625Y12.64
G01 X8.28638Y12.63791
G01 X8.30953Y12.63171
G01 X8.33125Y12.62158
G01 X8.35088Y12.60783
G01 X8.36783Y12.59088
G01 X8.38158Y12.57125
G01 X8.39171Y12.54953
G01 X8.39791Y12.52638
G01 X8.4Y12.5025
G01 X8.4Y12.2275
G01 X8.39791Y12.20362
G01 X8.39171Y12.18047
G01 X8.38158Y12.15875
G01 X8.36783Y12.13912
G01 X8.35088Y12.12217
G01 X8.33125Y12.10842
G01 X8.30953Y12.09829
G01 X8.28638Y12.09209
G01 X8.2625Y12.09
G01 X6.9375Y12.09
G01 X6.9375Y12.09
G01 X4.85891Y12.09
G01 X4.76247Y11.99356
G01 X4.7853Y11.94528
G01 X4.8134Y11.86674
G01 X4.83367Y11.78583
G01 X4.84591Y11.70331
G01 X4.85Y11.62
G01 X4.84591Y11.53669
G01 X4.83367Y11.45417
G01 X4.8134Y11.37326
G01 X4.7853Y11.29472
G01 X4.74963Y11.21931
G01 X4.70675Y11.14777
G01 X4.65706Y11.08077
G01 X4.60104Y11.01896
G01 X4.53923Y10.96294
G01 X4.47223Y10.91325
G01 X4.40069Y10.87037
G01 X4.32528Y10.8347
G01 X4.24674Y10.8066
G01 X4.16583Y10.78633
G01 X4.08331Y10.77409
G01 X4.0Y10.77
G01 X3.91669Y10.77409
G01 X3.83417Y10.78633
G01 X3.75326Y10.8066
G01 X3.67472Y10.8347
G01 X3.59931Y10.87037
G01 X3.52777Y10.91325
G01 X3.46077Y10.96294
G01 X3.39896Y11.01896
G01 X3.34294Y11.08077
G01 X3.29325Y11.14777
G01 X3.25037Y11.21931
G01 X3.2147Y11.29472
G01 X3.1866Y11.37326
G01 X3.16633Y11.45417
G01 X3.15409Y11.53669
G01 X3.15Y11.62
G01 X3.15409Y11.70331
G01 X3.16633Y11.78583
G01 X3.1866Y11.86674
G01 X3.2147Y11.94528
G01 X3.25037Y12.02069
G01 X3.29325Y12.09223
G01 X3.34294Y12.15923
G01 X3.34294Y12.15923
M5
G01 X3.29325Y14.63223
M3
G01 X3.34294Y14.69923
G01 X3.39896Y14.76104
G01 X3.46077Y14.81706
G01 X3.52777Y14.86675
G01 X3.59931Y14.90963
G01 X3.67472Y14.9453
G01 X3.75326Y14.9734
G01 X3.83417Y14.99367
G01 X3.91669Y15.00591
G01 X4.0Y15.01
G01 X4.08331Y15.00591
G01 X4.16583Y14.99367
G01 X4.24674Y14.9734
G01 X4.32528Y14.9453
G01 X4.40069Y14.90963
G01 X4.47223Y14.86675
G01 X4.53923Y14.81706
G01 X4.60104Y14.76104
G01 X4.65706Y14.69923
G01 X4.70675Y14.63223
G01 X4.74963Y14.56069
G01 X4.7853Y14.48528
G01 X4.8134Y14.40674
G01 X4.83367Y14.32583
G01 X4.84591Y14.24331
G01 X4.85Y14.16
G01 X4.84591Y14.07669
G01 X4.83367Y13.99417
G01 X4.8134Y13.91326
G01 X4.81223Y13.91
G01 X6.9375Y13.91
G01 X8.2625Y13.91
G01 X8.28638Y13.90791
G01 X8.30953Y13.90171
G01 X8.33125Y13.89158
G01 X8.35088Y13.87783
G01 X8.36783Y13.86088
G01 X8.38158Y13.84125
G01 X8.39171Y13.81953
G01 X8.39791Y13.79638
G01 X8.4Y13.7725
G01 X8.4Y13.4975
G01 X8.39791Y13.47362
G01 X8.39171Y13.45047
G01 X8.38158Y13.42875
G01 X8.36783Y13.40912
G01 X8.35088Y13.39217
G01 X8.33125Y13.37842
G01 X8.30953Y13.36829
G01 X8.28638Y13.36209
G01 X8.2625Y13.36
G01 X6.9375Y13.36
G01 X4.525Y13.36
G01 X4.49805Y13.36132
G01 X4.47135Y13.36528
G01 X4.44517Y13.37184
G01 X4.41976Y13.38093
G01 X4.39537Y13.39247
G01 X4.38102Y13.40107
G01 X4.32528Y13.3747
G01 X4.24674Y13.3466
G01 X4.16583Y13.32633
G01 X4.08331Y13.31409
G01 X4.0Y13.31
G01 X3.91669Y13.31409
G01 X3.83417Y13.32633
G01 X3.75326Y13.3466
G01 X3.67472Y13.3747
G01 X3.59931Y13.41037
G01 X3.52777Y13.45325
G01 X3.46077Y13.50294
G01 X3.39896Y13.55896
G01 X3.34294Y13.62077
G01 X3.29325Y13.68777
G01 X3.25037Y13.75931
G01 X3.2147Y13.83472
G01 X3.1866Y13.91326
G01 X3.16633Y13.99417
G01 X3.15409Y14.07669
G01 X3.15Y14.16
G01 X3.15409Y14.24331
G01 X3.16633Y14.32583
G01 X3.1866Y14.40674
G01 X3.2147Y14.48528
G01 X3.25037Y14.56069
G01 X3.29325Y14.63223
G01 X3.29325Y14.63223
M5
G01 X3.25037Y17.10069
M3
G01 X3.29325Y17.17223
G01 X3.34294Y17.23923
G01 X3.39896Y17.30104
G01 X3.46077Y17.35706
G01 X3.52777Y17.40675
G01 X3.59931Y17.44963
G01 X3.67472Y17.4853
G01 X3.75326Y17.5134
G01 X3.83417Y17.53367
G01 X3.91669Y17.54591
G01 X4.0Y17.55
G01 X4.08331Y17.54591
G01 X4.16583Y17.53367
G01 X4.24674Y17.5134
G01 X4.32528Y17.4853
G01 X4.40069Y17.44963
G01 X4.47223Y17.40675
G01 X4.53923Y17.35706
G01 X4.60104Y17.30104
G01 X4.65706Y17.23923
G01 X4.70675Y17.17223
G01 X4.74963Y17.10069
G01 X4.7853Y17.02528
G01 X4.8134Y16.94674
G01 X4.83367Y16.86583
G01 X4.84591Y16.78331
G01 X4.85Y16.7
G01 X4.84591Y16.61669
G01 X4.83367Y16.53417
G01 X4.8134Y16.45326
G01 X4.7853Y16.37472
G01 X4.76247Y16.32644
G01 X5.90891Y15.18
G01 X6.9375Y15.18
G01 X8.2625Y15.18
G01 X8.28638Y15.17791
G01 X8.30953Y15.17171
G01 X8.33125Y15.16158
G01 X8.35088Y15.14783
G01 X8.36783Y15.13088
G01 X8.38158Y15.11125
G01 X8.39171Y15.08953
G01 X8.39791Y15.06638
G01 X8.4Y15.0425
G01 X8.4Y14.7675
G01 X8.39791Y14.74362
G01 X8.39171Y14.72047
G01 X8.38158Y14.69875
G01 X8.36783Y14.67912
G01 X8.35088Y14.66217
G01 X8.33125Y14.64842
G01 X8.30953Y14.63829
G01 X8.28638Y14.63209
G01 X8.2625Y14.63
G01 X6.9375Y14.63
G01 X5.795Y14.63
G01 X5.76805Y14.63132
G01 X5.74135Y14.63528
G01 X5.71517Y14.64184
G01 X5.68976Y14.65093
G01 X5.66537Y14.66247
G01 X5.64222Y14.67635
G01 X5.62054Y14.69242
G01 X5.6143Y14.69808
G01 X5.60055Y14.71055
G01 X4.37356Y15.93753
G01 X4.32528Y15.9147
G01 X4.24674Y15.8866
G01 X4.16583Y15.86633
G01 X4.08331Y15.85409
G01 X4.0Y15.85
G01 X3.91669Y15.85409
G01 X3.83417Y15.86633
G01 X3.75326Y15.8866
G01 X3.67472Y15.9147
G01 X3.59931Y15.95037
G01 X3.52777Y15.99325
G01 X3.46077Y16.04294
G01 X3.39896Y16.09896
G01 X3.34294Y16.16077
G01 X3.29325Y16.22777
G01 X3.25037Y16.29931
G01 X3.2147Y16.37472
G01 X3.1866Y16.45326
G01 X3.16633Y16.53417
G01 X3.15409Y16.61669
G01 X3.15Y16.7
G01 X3.15409Y16.78331
G01 X3.16633Y16.86583
G01 X3.1866Y16.94674
G01 X3.2147Y17.02528
G01 X3.25037Y17.10069
G01 X3.25037Y17.10069
M5
G01 X3.39896Y19.84104
M3
G01 X3.46077Y19.89706
G01 X3.52777Y19.94675
G01 X3.59931Y19.98963
G01 X3.67472Y20.0253
G01 X3.75326Y20.0534
G01 X3.83417Y20.07367
G01 X3.91669Y20.08591
G01 X4.0Y20.09
G01 X4.08331Y20.08591
G01 X4.16583Y20.07367
G01 X4.24674Y20.0534
G01 X4.32528Y20.0253
G01 X4.40069Y19.98963
G01 X4.47223Y19.94675
G01 X4.53923Y19.89706
G01 X4.60104Y19.84104
G01 X4.65706Y19.77923
G01 X4.70675Y19.71223
G01 X4.74963Y19.64069
G01 X4.7853Y19.56528
G01 X4.8134Y19.48674
G01 X4.83367Y19.40583
G01 X4.84591Y19.32331
G01 X4.85Y19.24
G01 X4.84591Y19.15669
G01 X4.83367Y19.07417
G01 X4.8134Y18.99326
G01 X4.7853Y18.91472
G01 X4.76247Y18.86644
G01 X7.17891Y16.45
G01 X8.2625Y16.45
G01 X8.28638Y16.44791
G01 X8.30953Y16.44171
G01 X8.33125Y16.43158
G01 X8.35088Y16.41783
G01 X8.36783Y16.40088
G01 X8.38158Y16.38125
G01 X8.39171Y16.35953
G01 X8.39791Y16.33638
G01 X8.4Y16.3125
G01 X8.4Y16.0375
G01 X8.39791Y16.01362
G01 X8.39171Y15.99047
G01 X8.38158Y15.96875
G01 X8.36783Y15.94912
G01 X8.35088Y15.93217
G01 X8.33125Y15.91842
G01 X8.30953Y15.90829
G01 X8.28638Y15.90209
G01 X8.2625Y15.9
G01 X6.9375Y15.9
G01 X6.91362Y15.90209
G01 X6.89047Y15.90829
G01 X6.86875Y15.91842
G01 X6.84912Y15.93217
G01 X6.83217Y15.94912
G01 X6.81842Y15.96875
G01 X6.80829Y15.99047
G01 X6.80209Y16.01362
G01 X6.8Y16.0375
G01 X6.8Y16.05109
G01 X4.37356Y18.47753
G01 X4.32528Y18.4547
G01 X4.24674Y18.4266
G01 X4.16583Y18.40633
G01 X4.08331Y18.39409
G01 X4.0Y18.39
G01 X3.91669Y18.39409
G01 X3.83417Y18.40633
G01 X3.75326Y18.4266
G01 X3.67472Y18.4547
G01 X3.59931Y18.49037
G01 X3.52777Y18.53325
G01 X3.46077Y18.58294
G01 X3.39896Y18.63896
G01 X3.34294Y18.70077
G01 X3.29325Y18.76777
G01 X3.25037Y18.83931
G01 X3.2147Y18.91472
G01 X3.1866Y18.99326
G01 X3.16633Y19.07417
G01 X3.15409Y19.15669
G01 X3.15Y19.24
G01 X3.15409Y19.32331
G01 X3.16633Y19.40583
G01 X3.1866Y19.48674
G01 X3.2147Y19.56528
G01 X3.25037Y19.64069
G01 X3.29325Y19.71223
G01 X3.34294Y19.77923
G01 X3.39896Y19.84104
G01 X3.39896Y19.84104
M5
G01 X8.2625Y17.17
M3
G01 X6.9375Y17.17
G01 X6.91362Y17.17209
G01 X6.89047Y17.17829
G01 X6.86875Y17.18842
G01 X6.84912Y17.20217
G01 X6.83217Y17.21912
G01 X6.81842Y17.23875
G01 X6.80829Y17.26047
G01 X6.80209Y17.28362
G01 X6.8Y17.3075
G01 X6.8Y17.5825
G01 X6.80209Y17.60638
G01 X6.80829Y17.62953
G01 X6.81842Y17.65125
G01 X6.83217Y17.67088
G01 X6.84912Y17.68783
G01 X6.86875Y17.70158
G01 X6.89047Y17.71171
G01 X6.91362Y17.71791
G01 X6.9375Y17.72
G01 X7.325Y17.72
G01 X7.325Y18.06609
G01 X4.37356Y21.01753
G01 X4.32528Y20.9947
G01 X4.24674Y20.9666
G01 X4.16583Y20.94633
G01 X4.08331Y20.93409
G01 X4.0Y20.93
G01 X3.91669Y20.93409
G01 X3.83417Y20.94633
G01 X3.75326Y20.9666
G01 X3.67472Y20.9947
G01 X3.59931Y21.03037
G01 X3.52777Y21.07325
G01 X3.46077Y21.12294
G01 X3.39896Y21.17896
G01 X3.34294Y21.24077
G01 X3.29325Y21.30777
G01 X3.25037Y21.37931
G01 X3.2147Y21.45472
G01 X3.1866Y21.53326
G01 X3.16633Y21.61417
G01 X3.15409Y21.69669
G01 X3.15Y21.78
G01 X3.15409Y21.86331
G01 X3.16633Y21.94583
G01 X3.1866Y22.02674
G01 X3.2147Y22.10528
G01 X3.25037Y22.18069
G01 X3.29325Y22.25223
G01 X3.34294Y22.31923
G01 X3.39896Y22.38104
G01 X3.46077Y22.43706
G01 X3.52777Y22.48675
G01 X3.59931Y22.52963
G01 X3.67472Y22.5653
G01 X3.75326Y22.5934
G01 X3.83417Y22.61367
G01 X3.91669Y22.62591
G01 X4.0Y22.63
G01 X4.08331Y22.62591
G01 X4.16583Y22.61367
G01 X4.24674Y22.5934
G01 X4.32528Y22.5653
G01 X4.40069Y22.52963
G01 X4.47223Y22.48675
G01 X4.53923Y22.43706
G01 X4.60104Y22.38104
G01 X4.65706Y22.31923
G01 X4.70675Y22.25223
G01 X4.74963Y22.18069
G01 X4.7853Y22.10528
G01 X4.8134Y22.02674
G01 X4.83367Y21.94583
G01 X4.84591Y21.86331
G01 X4.85Y21.78
G01 X4.84591Y21.69669
G01 X4.83367Y21.61417
G01 X4.8134Y21.53326
G01 X4.7853Y21.45472
G01 X4.76247Y21.40644
G01 X7.79445Y18.37445
G01 X7.81258Y18.35446
G01 X7.82865Y18.33278
G01 X7.84253Y18.30963
G01 X7.85407Y18.28524
G01 X7.86316Y18.25983
G01 X7.86972Y18.23365
G01 X7.87368Y18.20695
G01 X7.875Y18.18
G01 X7.875Y17.72
G01 X8.2625Y17.72
G01 X8.28638Y17.71791
G01 X8.30953Y17.71171
G01 X8.33125Y17.70158
G01 X8.35088Y17.68783
G01 X8.36783Y17.67088
G01 X8.38158Y17.65125
G01 X8.39171Y17.62953
G01 X8.39791Y17.60638
G01 X8.4Y17.5825
G01 X8.4Y17.3075
G01 X8.39791Y17.28362
G01 X8.39171Y17.26047
G01 X8.38158Y17.23875
G01 X8.36783Y17.21912
G01 X8.35088Y17.20217
G01 X8.33125Y17.18842
G01 X8.30953Y17.17829
G01 X8.28638Y17.17209
G01 X8.2625Y17.17
G01 X8.2625Y17.17
M5
G01 X2.1Y23.65
M3
G01 X2.1Y2.1
G01 X18.4Y2.1
G01 X18.4Y23.65
G01 X2.1Y23.65
G01 X2.1Y23.65
M5

M5 ; Disable End-Effector Signal

; Returning the Deactivating Tool-1
C0 ; PWM Tool select demultiplexer to select tool zero which is the empty tool slot in multiplexers
#TODO X-0.0Y-0.0Z-0.0 ;  ;Remove tool offset coordinate
G00X165.0Y0.0Z10.5 ; Go to Tool-1 Home Pos
G00X92 ; Enter Female Kinematic Mount Home Pos
A0 ; Latch OFF Kinematic Mount
G4 P5 ; Wait for Kinematic Mount to fully detach
G00X188 ; Exit Female Kinematic Mount Home Pos

; Machine deinitialization Sequence... 
G00X0.0Y0.0Z0.0
B0 ; Turn Machine OFF
